Hatter-kde/actions/24/office-chart-polar-stacked.svg

<svg xmlns="http://www.w3.org/2000/svg" viewBox="0 0 24 24">
  <defs id="defs3051">
    <style type="text/css" id="current-color-scheme">
      .ColorScheme-Text {
        color:#363636;
      }
      </style>
  </defs>
 <path style="fill:currentColor;fill-opacity:1;stroke:none" 
     d="M 12 4 C 7.568 4 4 7.568 4 12 C 4 16.432 7.568 20 12 20 C 16.432 20 20 16.432 20 12 C 20 7.568 16.432 4 12 4 z M 12 5 C 13.365929 5 14.634027 5.3931964 15.708984 6.0644531 L 13.058594 10.306641 C 13.578053 10.631496 13.928885 11.187907 13.982422 11.833984 L 18.970703 11.417969 C 18.986477 11.610583 19 11.803182 19 12 C 19 15.878 15.878 19 12 19 C 8.122 19 5 15.878 5 12 C 5 8.122 8.122 5 12 5 z M 12 6 C 10.098559 6 8.4122069 6.8783098 7.3144531 8.25 L 10.443359 10.753906 C 10.809292 10.297096 11.366524 10 12 10 L 12 9.5 L 12 7.5 L 12 6 z M 10.583984 13.416016 L 8.4609375 15.539062 C 9.3646875 16.442813 10.615 17 12 17 L 12 15.5 L 12 14 C 11.446 14 10.945484 13.777516 10.583984 13.416016 z "
     class="ColorScheme-Text"
     />
</svg>

<?xml version="1.0" encoding="UTF-8"?>
<svg viewBox="0 0 24 24" xmlns="http://www.w3.org/2000/svg">
 <defs id="defs3051">
  <style id="current-color-scheme" type="text/css">.ColorScheme-Text {
        color:#363636;
      }</style>
 </defs>
 <path class="ColorScheme-Text" d="m12 4c-4.432 0-8 3.568-8 8s3.568 8 8 8 8-3.568 8-8-3.568-8-8-8zm0 1c1.3659 0 2.634 0.3932 3.709 1.0645l-2.6504 4.2422c0.51946 0.32486 0.87029 0.88127 0.92383 1.5273l4.9883-0.41602c0.015774 0.19261 0.029297 0.38521 0.029297 0.58203 0 3.878-3.122 7-7 7s-7-3.122-7-7 3.122-7 7-7zm0 1c-1.9014 0-3.5878 0.87831-4.6855 2.25l3.1289 2.5039c0.36593-0.45681 0.92316-0.75391 1.5566-0.75391v-0.5-2-1.5zm-1.416 7.416-2.123 2.123c0.90375 0.90375 2.1541 1.4609 3.5391 1.4609v-1.5-1.5c-0.554 0-1.0545-0.22248-1.416-0.58398z" fill="currentColor"/>
</svg>
